femmes/public/img/illustrations/slide3/pink-rugby.svg

<?xml version="1.0" encoding="UTF-8" standalone="no"?>
<svg
   width="289"
   height="259"
   viewBox="0 0 289 259"
   fill="none"
   version="1.1"
   id="svg118"
   sodipodi:docname="pink-rugby.svg"
   inkscape:version="1.1.2 (0a00cf5339, 2022-02-04)"
   xmlns:inkscape="http://www.inkscape.org/namespaces/inkscape"
   xmlns:sodipodi="http://sodipodi.sourceforge.net/DTD/sodipodi-0.dtd"
   xmlns="http://www.w3.org/2000/svg"
   xmlns:svg="http://www.w3.org/2000/svg">
  <sodipodi:namedview
     id="namedview120"
     pagecolor="#ffffff"
     bordercolor="#666666"
     borderopacity="1.0"
     inkscape:pageshadow="2"
     inkscape:pageopacity="0.0"
     inkscape:pagecheckerboard="0"
     showgrid="false"
     inkscape:zoom="1.902185"
     inkscape:cx="94.365163"
     inkscape:cy="131.4278"
     inkscape:window-width="1916"
     inkscape:window-height="1053"
     inkscape:window-x="0"
     inkscape:window-y="0"
     inkscape:window-maximized="1"
     inkscape:current-layer="svg118" />
  <g
     clip-path="url(#clip0_223_285)"
     id="g103"
     transform="translate(0.45146221,-10.366753)">
    <path
       d="m 121.978,82.9647 c 83.886,-4.2377 149.772,52.9293 157.456,136.1863 1.074,11.638 -3.395,24.014 -12.099,33.43 l -0.367,0.396 c -7.962,8.613 -18.663,13.927 -29.359,14.442 C 153.702,271.461 87.9423,214.043 80.5138,130.669 79.4591,118.832 84.1649,106.26 93.1647,96.8374 101.072,88.5577 111.531,83.493 121.977,82.9654 Z"
       fill="#ed6ea7"
       id="path94" />
    <mask
       id="mask0_223_285"
       maskUnits="userSpaceOnUse"
       x="80"
       y="82"
       width="200"
       height="186">
      <path
         d="m 121.978,82.9647 c 83.886,-4.2377 149.772,52.9293 157.456,136.1863 1.074,11.638 -3.395,24.014 -12.099,33.43 l -0.367,0.396 c -7.962,8.613 -18.663,13.927 -29.359,14.442 C 153.702,271.461 87.9423,214.043 80.5138,130.669 79.4591,118.832 84.1649,106.26 93.1647,96.8374 101.072,88.5577 111.531,83.493 121.977,82.9654 Z"
         fill="#ffffff"
         id="path96" />
    </mask>
    <g
       mask="url(#mask0_223_285)"
       id="g101">
      <path
         d="M 146.21,212.965 C 114.838,185.408 91.8014,148.388 84.6131,108.521 c -0.9503,-5.269 0.2602,-10.1362 3.4076,-13.7023 3.152,-3.5713 7.8399,-5.3789 13.1993,-5.0897 l 1.774,0.096 c 80.333,4.3286 157.611,72.207 172.264,151.313 l 0.113,0.609 c 0.98,5.292 -0.216,10.184 -3.368,13.772 -3.152,3.589 -7.848,5.405 -13.222,5.116 l -1.775,-0.095 c -40.232,-2.168 -79.629,-20.199 -110.795,-47.574 z m -45.083,-121.504 -0.093,1.7321 c -4.279,-0.2301 -7.9765,1.1624 -10.4121,3.9208 -2.431,2.7544 -3.3521,6.5861 -2.5949,10.7901 14.061,77.983 89.948,144.899 169.164,149.169 l 1.775,0.095 c 4.29,0.231 7.994,-1.169 10.429,-3.941 2.435,-2.773 3.346,-6.626 2.563,-10.85 l -0.114,-0.609 C 257.467,164.144 181.636,97.5368 102.806,93.2879 l -1.773,-0.0954 0.093,-1.7321 z"
         fill="#000000"
         id="path99" />
    </g>
  </g>
  <path
     d="M 111.81946,57.988747 C 83.128262,33.086647 7.2311222,-13.469343 -66.825438,-0.47696308"
     stroke="#ec6ea6"
     stroke-width="3"
     id="path105" />
  <line
     x1="289.17447"
     y1="257.67123"
     x2="138.67647"
     y2="257.67123"
     stroke="#ec6ea6"
     stroke-width="3"
     id="line107" />
  <path
     d="m 56.715862,45.947947 c -31.9945,-16.29 -112.221,-41.6668001 -177.171402,-12.8534"
     stroke="#ec6ea6"
     stroke-width="3"
     id="path109" />
  <path
     d="M 74.853562,99.184246 C 40.341662,83.302247 -45.548638,59.835347 -113.01454,93.025247"
     stroke="#ec6ea6"
     stroke-width="3"
     id="path111" />
  <defs
     id="defs116">
    <clipPath
       id="clip0_223_285">
      <rect
         width="244.282"
         height="150.605"
         fill="#ffffff"
         transform="rotate(41.2954,18.543314,202.01431)"
         id="rect113"
         x="0"
         y="0" />
    </clipPath>
  </defs>
</svg>

<svg width="322" height="313" viewBox="0 0 322 313" fill="none" xmlns="http://www.w3.org/2000/svg">
<g clip-path="url(#clip0_223_285)">
<path d="M121.978 82.9647C205.864 78.727 271.75 135.894 279.434 219.151C280.508 230.789 276.039 243.165 267.335 252.581L266.968 252.977C259.006 261.59 248.305 266.904 237.609 267.419C153.702 271.461 87.9423 214.043 80.5138 130.669C79.4591 118.832 84.1649 106.26 93.1647 96.8374C101.072 88.5577 111.531 83.493 121.977 82.9654L121.978 82.9647Z" fill="#ED6EA7"/>
<mask id="mask0_223_285" style="mask-type:luminance" maskUnits="userSpaceOnUse" x="80" y="82" width="200" height="186">
<path d="M121.978 82.9647C205.864 78.727 271.75 135.894 279.434 219.151C280.508 230.789 276.039 243.165 267.335 252.581L266.968 252.977C259.006 261.59 248.305 266.904 237.609 267.419C153.702 271.461 87.9423 214.043 80.5138 130.669C79.4591 118.832 84.1649 106.26 93.1647 96.8374C101.072 88.5577 111.531 83.493 121.977 82.9654L121.978 82.9647Z" fill="white"/>
</mask>
<g mask="url(#mask0_223_285)">
<path d="M146.21 212.965C114.838 185.408 91.8014 148.388 84.6131 108.521C83.6628 103.252 84.8733 98.3848 88.0207 94.8187C91.1727 91.2474 95.8606 89.4398 101.22 89.729L102.994 89.825C183.327 94.1536 260.605 162.032 275.258 241.138L275.371 241.747C276.351 247.039 275.155 251.931 272.003 255.519C268.851 259.108 264.155 260.924 258.781 260.635L257.006 260.54C216.774 258.372 177.377 240.341 146.211 212.966L146.21 212.965ZM101.127 91.461L101.034 93.1931C96.755 92.963 93.0575 94.3555 90.6219 97.1139C88.1909 99.8683 87.2698 103.7 88.027 107.904C102.088 185.887 177.975 252.803 257.191 257.073L258.966 257.168C263.256 257.399 266.96 255.999 269.395 253.227C271.83 250.454 272.741 246.601 271.958 242.377L271.844 241.768C257.467 164.144 181.636 97.5368 102.806 93.2879L101.033 93.1925L101.126 91.4604L101.127 91.461Z" fill="black"/>
</g>
</g>
<path d="M111.368 68.3555C82.6768 43.4534 6.77966 -3.10259 -67.2769 9.88979" stroke="#EC6EA6" stroke-width="3"/>
<line x1="288.723" y1="268.038" x2="138.225" y2="268.038" stroke="#EC6EA6" stroke-width="3"/>
<path d="M56.2644 56.3147C24.2699 40.0247 -55.9566 14.6479 -120.907 43.4613" stroke="#EC6EA6" stroke-width="3"/>
<path d="M74.4021 109.551C39.8902 93.669 -46.0001 70.2021 -113.466 103.392" stroke="#EC6EA6" stroke-width="3"/>
<defs>
<clipPath id="clip0_223_285">
<rect width="244.282" height="150.605" fill="white" transform="translate(137.929 38) rotate(41.2954)"/>
</clipPath>
</defs>
</svg>
